; generated by PrusaSlicer 2.5.0+win64 on 2022-11-12 at 13:19:39 UTC

; 

; external perimeters extrusion width = 0.42mm
; perimeters extrusion width = 0.44mm
; infill extrusion width = 0.44mm
; solid infill extrusion width = 0.44mm
; top infill extrusion width = 0.40mm
; first layer extrusion width = 0.42mm

M201 X500 Y500 Z100 E5000 ; sets maximum accelerations, mm/sec^2
M203 X500 Y500 Z10 E60 ; sets maximum feedrates, mm / sec
M204 P500 R1000 T500 ; sets acceleration (P, T) and retract acceleration (R), mm/sec^2
M205 X8.00 Y8.00 Z0.40 E5.00 ; sets the jerk limits, mm/sec
M205 S0 T0 ; sets the minimum extruding and travel feed rate, mm/sec
M107
;TYPE:Custom
G90 ; use absolute coordinates
M83 ; extruder relative mode
M104 S150 ; set temporary nozzle temp to prevent oozing during homing
M140 S60 ; set final bed temp
G4 S20 ; allow partial nozzle warmup
G28 ; home all axis
G1 Z50 F240
G1 X2.0 Y10 F3000
M104 S215 ; set final nozzle temp
M190 S60 ; wait for bed temp to stabilize
M109 S215 ; wait for nozzle temp to stabilize
G1 Z0.28 F240
G92 E0
G1 X2.0 Y140 E10 F1500 ; prime the nozzle
G1 X2.3 Y140 F5000
G92 E0
G1 X2.3 Y10 E10 F1200 ; prime the nozzle
G92 E0
G21 ; set units to millimeters
G90 ; use absolute coordinates
M83 ; use relative distances for extrusion
; Filament gcode
M107
;LAYER_CHANGE
;Z:0.2
;HEIGHT:0.2
;BEFORE_LAYER_CHANGE
G92 E0
;0.2


G1 E-5 F3600
G1 Z.2 F9000
;AFTER_LAYER_CHANGE
;0.2
G1 X83.107 Y77.203
G1 E5 F2400
M204 S500
;TYPE:Skirt/Brim
;WIDTH:0.42
G1 F1200
G1 X85 Y76.623 E.06207
G1 X135 Y76.623 E1.56771
G1 X136.583 Y77.017 E.05115
G1 X137.797 Y78.107 E.05115
G1 X138.377 Y80 E.06207
G1 X138.377 Y140 E1.88126
G1 X137.983 Y141.583 E.05115
G1 X136.893 Y142.797 E.05115
G1 X135 Y143.377 E.06207
G1 X85 Y143.377 E1.56771
G1 X83.417 Y142.983 E.05115
G1 X82.203 Y141.893 E.05115
G1 X81.623 Y140 E.06207
G1 X81.623 Y80 E1.88126
G1 X82.017 Y78.417 E.05115
G1 X83.067 Y77.248 E.04927
; printing object box100.stl id:0 copy 0
G1 E-3.5 F3600
;WIPE_START
G1 F7200
G1 X85 Y76.623 E-.96489
G1 X85.969 Y76.623 E-.46011
;WIPE_END
G1 E-.075 F3600
G1 X86.064 Y81.064 F9000
G1 E5 F2400
;TYPE:Perimeter
;WIDTH:0.419999
G1 F1200
G1 X133.936 Y81.064 E1.50098
G1 X133.936 Y138.936 E1.81452
G1 X86.064 Y138.936 E1.50098
G1 X86.064 Y81.124 E1.81264
G1 X85.687 Y80.687 F9000
G1 F1200
G1 X134.313 Y80.687 E1.52463
G1 X134.313 Y139.313 E1.83817
G1 X85.687 Y139.313 E1.52463
G1 X85.687 Y80.747 E1.83629
G1 X85.31 Y80.31 F9000
;TYPE:External perimeter
G1 F1200
G1 X134.69 Y80.31 E1.54827
G1 X134.69 Y139.69 E1.86182
G1 X85.31 Y139.69 E1.54827
G1 X85.31 Y80.37 E1.85993
G1 X85.693 Y80.425 F9000
G1 E-3.5 F3600
;WIPE_START
G1 F7200
G1 X88.31 Y80.366 E-1.425
;WIPE_END
G1 E-.075 F3600
G1 X133.051 Y81.185 F9000
G1 E5 F2400
;TYPE:Solid infill
;WIDTH:0.42101
G1 F1200
G1 X133.646 Y81.78 E.02644
G1 X133.646 Y82.314 E.01681
G1 X132.686 Y81.354 E.04267
G1 X132.151 Y81.354 E.01681
G1 X133.646 Y82.849 E.06644
G1 X133.646 Y83.384 E.01681
G1 X131.616 Y81.354 E.09022
G1 X131.082 Y81.354 E.01681
G1 X133.646 Y83.918 E.11399
G1 X133.646 Y84.453 E.01681
G1 X130.547 Y81.354 E.13776
G1 X130.012 Y81.354 E.01681
G1 X133.646 Y84.988 E.16154
G1 X133.646 Y85.522 E.01681
G1 X129.478 Y81.354 E.18531
G1 X128.943 Y81.354 E.01681
G1 X133.646 Y86.057 E.20908
G1 X133.646 Y86.592 E.01681
G1 X128.408 Y81.354 E.23285
G1 X127.873 Y81.354 E.01681
G1 X133.646 Y87.127 E.25663
G1 X133.646 Y87.661 E.01681
G1 X127.339 Y81.354 E.2804
G1 X126.804 Y81.354 E.01681
G1 X133.646 Y88.196 E.30417
G1 X133.646 Y88.731 E.01681
G1 X126.269 Y81.354 E.32795
G1 X125.735 Y81.354 E.01681
G1 X133.646 Y89.265 E.35172
G1 X133.646 Y89.8 E.01681
G1 X125.2 Y81.354 E.37549
G1 X124.665 Y81.354 E.01681
G1 X133.646 Y90.335 E.39927
G1 X133.646 Y90.869 E.01681
G1 X124.131 Y81.354 E.42304
G1 X123.596 Y81.354 E.01681
G1 X133.646 Y91.404 E.44681
G1 X133.646 Y91.939 E.01681
G1 X123.061 Y81.354 E.47059
G1 X122.526 Y81.354 E.01681
G1 X133.646 Y92.474 E.49436
G1 X133.646 Y93.008 E.01681
G1 X121.992 Y81.354 E.51813
G1 X121.457 Y81.354 E.01681
G1 X133.646 Y93.543 E.5419
G1 X133.646 Y94.078 E.01681
G1 X120.922 Y81.354 E.56568
G1 X120.388 Y81.354 E.01681
G1 X133.646 Y94.612 E.58945
G1 X133.646 Y95.147 E.01681
G1 X119.853 Y81.354 E.61322
G1 X119.318 Y81.354 E.01681
G1 X133.646 Y95.682 E.637
G1 X133.646 Y96.216 E.01681
G1 X118.784 Y81.354 E.66077
G1 X118.249 Y81.354 E.01681
G1 X133.646 Y96.751 E.68454
G1 X133.646 Y97.286 E.01681
G1 X117.714 Y81.354 E.70832
G1 X117.179 Y81.354 E.01681
G1 X133.646 Y97.821 E.73209
G1 X133.646 Y98.355 E.01681
G1 X116.645 Y81.354 E.75586
G1 X116.11 Y81.354 E.01681
G1 X133.646 Y98.89 E.77963
G1 X133.646 Y99.425 E.01681
G1 X115.575 Y81.354 E.80341
G1 X115.041 Y81.354 E.01681
G1 X133.646 Y99.959 E.82718
G1 X133.646 Y100.494 E.01681
G1 X114.506 Y81.354 E.85095
G1 X113.971 Y81.354 E.01681
G1 X133.646 Y101.029 E.87473
G1 X133.646 Y101.563 E.01681
G1 X113.437 Y81.354 E.8985
G1 X112.902 Y81.354 E.01681
G1 X133.646 Y102.098 E.92227
G1 X133.646 Y102.633 E.01681
G1 X112.367 Y81.354 E.94605
G1 X111.832 Y81.354 E.01681
G1 X133.646 Y103.168 E.96982
G1 X133.646 Y103.702 E.01681
G1 X111.298 Y81.354 E.99359
G1 X110.763 Y81.354 E.01681
G1 X133.646 Y104.237 E1.01736
G1 X133.646 Y104.772 E.01681
G1 X110.228 Y81.354 E1.04114
G1 X109.694 Y81.354 E.01681
G1 X133.646 Y105.306 E1.06491
G1 X133.646 Y105.841 E.01681
G1 X109.159 Y81.354 E1.08868
G1 X108.624 Y81.354 E.01681
G1 X133.646 Y106.376 E1.11246
G1 X133.646 Y106.91 E.01681
G1 X108.09 Y81.354 E1.13623
G1 X107.555 Y81.354 E.01681
G1 X133.646 Y107.445 E1.16
G1 X133.646 Y107.98 E.01681
G1 X107.02 Y81.354 E1.18378
G1 X106.485 Y81.354 E.01681
G1 X133.646 Y108.515 E1.20755
G1 X133.646 Y109.049 E.01681
G1 X105.951 Y81.354 E1.23132
G1 X105.416 Y81.354 E.01681
G1 X133.646 Y109.584 E1.25509
G1 X133.646 Y110.119 E.01681
G1 X104.881 Y81.354 E1.27887
G1 X104.347 Y81.354 E.01681
G1 X133.646 Y110.653 E1.30264
G1 X133.646 Y111.188 E.01681
G1 X103.812 Y81.354 E1.32641
G1 X103.277 Y81.354 E.01681
G1 X133.646 Y111.723 E1.35019
G1 X133.646 Y112.257 E.01681
G1 X102.743 Y81.354 E1.37396
G1 X102.208 Y81.354 E.01681
G1 X133.646 Y112.792 E1.39773
G1 X133.646 Y113.327 E.01681
G1 X101.673 Y81.354 E1.42151
G1 X101.138 Y81.354 E.01681
G1 X133.646 Y113.862 E1.44528
G1 X133.646 Y114.396 E.01681
G1 X100.604 Y81.354 E1.46905
G1 X100.069 Y81.354 E.01681
G1 X133.646 Y114.931 E1.49282
G1 X133.646 Y115.466 E.01681
G1 X99.534 Y81.354 E1.5166
G1 X99 Y81.354 E.01681
G1 X133.646 Y116 E1.54037
G1 X133.646 Y116.535 E.01681
G1 X98.465 Y81.354 E1.56414
G1 X97.93 Y81.354 E.01681
G1 X133.646 Y117.07 E1.58792
G1 X133.646 Y117.604 E.01681
G1 X97.396 Y81.354 E1.61169
G1 X96.861 Y81.354 E.01681
G1 X133.646 Y118.139 E1.63546
G1 X133.646 Y118.674 E.01681
G1 X96.326 Y81.354 E1.65924
G1 X95.791 Y81.354 E.01681
G1 X133.646 Y119.209 E1.68301
G1 X133.646 Y119.743 E.01681
G1 X95.257 Y81.354 E1.70678
G1 X94.722 Y81.354 E.01681
G1 X133.646 Y120.278 E1.73056
G1 X133.646 Y120.813 E.01681
G1 X94.187 Y81.354 E1.75433
G1 X93.653 Y81.354 E.01681
G1 X133.646 Y121.347 E1.7781
G1 X133.646 Y121.882 E.01681
G1 X93.118 Y81.354 E1.80187
G1 X92.583 Y81.354 E.01681
G1 X133.646 Y122.417 E1.82565
G1 X133.646 Y122.951 E.01681
G1 X92.049 Y81.354 E1.84942
G1 X91.514 Y81.354 E.01681
G1 X133.646 Y123.486 E1.87319
G1 X133.646 Y124.021 E.01681
G1 X90.979 Y81.354 E1.89697
G1 X90.444 Y81.354 E.01681
G1 X133.646 Y124.556 E1.92074
G1 X133.646 Y125.09 E.01681
G1 X89.91 Y81.354 E1.94451
G1 X89.375 Y81.354 E.01681
G1 X133.646 Y125.625 E1.96829
G1 X133.646 Y126.16 E.01681
G1 X88.84 Y81.354 E1.99206
G1 X88.306 Y81.354 E.01681
G1 X133.646 Y126.694 E2.01583
G1 X133.646 Y127.229 E.01681
G1 X87.771 Y81.354 E2.0396
G1 X87.236 Y81.354 E.01681
G1 X133.646 Y127.764 E2.06338
G1 X133.646 Y128.298 E.01681
G1 X86.702 Y81.354 E2.08715
G1 X86.354 Y81.354 E.01091
G1 X86.354 Y81.542 E.0059
G1 X133.646 Y128.833 E2.10258
G1 X133.646 Y129.368 E.01681
G1 X86.354 Y82.077 E2.10258
G1 X86.354 Y82.612 E.01681
G1 X133.646 Y129.903 E2.10258
G1 X133.646 Y130.437 E.01681
G1 X86.354 Y83.146 E2.10258
G1 X86.354 Y83.681 E.01681
G1 X133.646 Y130.972 E2.10258
G1 X133.646 Y131.507 E.01681
G1 X86.354 Y84.216 E2.10258
G1 X86.354 Y84.75 E.01681
G1 X133.646 Y132.041 E2.10258
G1 X133.646 Y132.576 E.01681
G1 X86.354 Y85.285 E2.10258
G1 X86.354 Y85.82 E.01681
G1 X133.646 Y133.111 E2.10258
G1 X133.646 Y133.645 E.01681
G1 X86.354 Y86.354 E2.10258
G1 X86.354 Y86.889 E.01681
G1 X133.646 Y134.18 E2.10258
G1 X133.646 Y134.715 E.01681
G1 X86.354 Y87.424 E2.10258
G1 X86.354 Y87.959 E.01681
G1 X133.646 Y135.25 E2.10258
G1 X133.646 Y135.784 E.01681
G1 X86.354 Y88.493 E2.10258
G1 X86.354 Y89.028 E.01681
G1 X133.646 Y136.319 E2.10258
G1 X133.646 Y136.854 E.01681
G1 X86.354 Y89.563 E2.10258
G1 X86.354 Y90.097 E.01681
G1 X133.646 Y137.388 E2.10258
G1 X133.646 Y137.923 E.01681
G1 X86.354 Y90.632 E2.10258
G1 X86.354 Y91.167 E.01681
G1 X133.646 Y138.458 E2.10258
G1 X133.646 Y138.646 E.0059
G1 X133.299 Y138.646 E.01091
G1 X86.354 Y91.701 E2.08716
G1 X86.354 Y92.236 E.01681
G1 X132.764 Y138.646 E2.06338
G1 X132.229 Y138.646 E.01681
G1 X86.354 Y92.771 E2.03961
G1 X86.354 Y93.306 E.01681
G1 X131.694 Y138.646 E2.01584
G1 X131.16 Y138.646 E.01681
G1 X86.354 Y93.84 E1.99206
G1 X86.354 Y94.375 E.01681
G1 X130.625 Y138.646 E1.96829
G1 X130.09 Y138.646 E.01681
G1 X86.354 Y94.91 E1.94452
G1 X86.354 Y95.444 E.01681
G1 X129.556 Y138.646 E1.92075
G1 X129.021 Y138.646 E.01681
G1 X86.354 Y95.979 E1.89697
G1 X86.354 Y96.514 E.01681
G1 X128.486 Y138.646 E1.8732
G1 X127.952 Y138.646 E.01681
G1 X86.354 Y97.048 E1.84943
G1 X86.354 Y97.583 E.01681
G1 X127.417 Y138.646 E1.82565
G1 X126.882 Y138.646 E.01681
G1 X86.354 Y98.118 E1.80188
G1 X86.354 Y98.653 E.01681
G1 X126.347 Y138.646 E1.77811
G1 X125.813 Y138.646 E.01681
G1 X86.354 Y99.187 E1.75433
G1 X86.354 Y99.722 E.01681
G1 X125.278 Y138.646 E1.73056
G1 X124.743 Y138.646 E.01681
G1 X86.354 Y100.257 E1.70679
G1 X86.354 Y100.791 E.01681
G1 X124.209 Y138.646 E1.68301
G1 X123.674 Y138.646 E.01681
G1 X86.354 Y101.326 E1.65924
G1 X86.354 Y101.861 E.01681
G1 X123.139 Y138.646 E1.63547
G1 X122.605 Y138.646 E.01681
G1 X86.354 Y102.395 E1.6117
G1 X86.354 Y102.93 E.01681
G1 X122.07 Y138.646 E1.58792
G1 X121.535 Y138.646 E.01681
G1 X86.354 Y103.465 E1.56415
G1 X86.354 Y104 E.01681
G1 X121 Y138.646 E1.54038
G1 X120.466 Y138.646 E.01681
G1 X86.354 Y104.534 E1.5166
G1 X86.354 Y105.069 E.01681
G1 X119.931 Y138.646 E1.49283
G1 X119.396 Y138.646 E.01681
G1 X86.354 Y105.604 E1.46906
G1 X86.354 Y106.138 E.01681
G1 X118.862 Y138.646 E1.44528
G1 X118.327 Y138.646 E.01681
G1 X86.354 Y106.673 E1.42151
G1 X86.354 Y107.208 E.01681
G1 X117.792 Y138.646 E1.39774
G1 X117.258 Y138.646 E.01681
G1 X86.354 Y107.742 E1.37397
G1 X86.354 Y108.277 E.01681
G1 X116.723 Y138.646 E1.35019
G1 X116.188 Y138.646 E.01681
G1 X86.354 Y108.812 E1.32642
G1 X86.354 Y109.347 E.01681
G1 X115.653 Y138.646 E1.30265
G1 X115.119 Y138.646 E.01681
G1 X86.354 Y109.881 E1.27887
G1 X86.354 Y110.416 E.01681
G1 X114.584 Y138.646 E1.2551
G1 X114.049 Y138.646 E.01681
G1 X86.354 Y110.951 E1.23133
G1 X86.354 Y111.485 E.01681
G1 X113.515 Y138.646 E1.20755
G1 X112.98 Y138.646 E.01681
G1 X86.354 Y112.02 E1.18378
G1 X86.354 Y112.555 E.01681
G1 X112.445 Y138.646 E1.16001
G1 X111.911 Y138.646 E.01681
G1 X86.354 Y113.089 E1.13624
G1 X86.354 Y113.624 E.01681
G1 X111.376 Y138.646 E1.11246
G1 X110.841 Y138.646 E.01681
G1 X86.354 Y114.159 E1.08869
G1 X86.354 Y114.694 E.01681
G1 X110.306 Y138.646 E1.06492
G1 X109.772 Y138.646 E.01681
G1 X86.354 Y115.228 E1.04114
G1 X86.354 Y115.763 E.01681
G1 X109.237 Y138.646 E1.01737
G1 X108.702 Y138.646 E.01681
G1 X86.354 Y116.298 E.9936
G1 X86.354 Y116.832 E.01681
G1 X108.168 Y138.646 E.96982
G1 X107.633 Y138.646 E.01681
G1 X86.354 Y117.367 E.94605
G1 X86.354 Y117.902 E.01681
G1 X107.098 Y138.646 E.92228
G1 X106.564 Y138.646 E.01681
G1 X86.354 Y118.436 E.89851
G1 X86.354 Y118.971 E.01681
G1 X106.029 Y138.646 E.87473
G1 X105.494 Y138.646 E.01681
G1 X86.354 Y119.506 E.85096
G1 X86.354 Y120.041 E.01681
G1 X104.959 Y138.646 E.82719
G1 X104.425 Y138.646 E.01681
G1 X86.354 Y120.575 E.80341
G1 X86.354 Y121.11 E.01681
G1 X103.89 Y138.646 E.77964
G1 X103.355 Y138.646 E.01681
G1 X86.354 Y121.645 E.75587
G1 X86.354 Y122.179 E.01681
G1 X102.821 Y138.646 E.73209
G1 X102.286 Y138.646 E.01681
G1 X86.354 Y122.714 E.70832
G1 X86.354 Y123.249 E.01681
G1 X101.751 Y138.646 E.68455
G1 X101.217 Y138.646 E.01681
G1 X86.354 Y123.783 E.66077
G1 X86.354 Y124.318 E.01681
G1 X100.682 Y138.646 E.637
G1 X100.147 Y138.646 E.01681
G1 X86.354 Y124.853 E.61323
G1 X86.354 Y125.388 E.01681
G1 X99.612 Y138.646 E.58946
G1 X99.078 Y138.646 E.01681
G1 X86.354 Y125.922 E.56568
G1 X86.354 Y126.457 E.01681
G1 X98.543 Y138.646 E.54191
G1 X98.008 Y138.646 E.01681
G1 X86.354 Y126.992 E.51814
G1 X86.354 Y127.526 E.01681
G1 X97.474 Y138.646 E.49436
G1 X96.939 Y138.646 E.01681
G1 X86.354 Y128.061 E.47059
G1 X86.354 Y128.596 E.01681
G1 X96.404 Y138.646 E.44682
G1 X95.87 Y138.646 E.01681
G1 X86.354 Y129.13 E.42304
G1 X86.354 Y129.665 E.01681
G1 X95.335 Y138.646 E.39927
G1 X94.8 Y138.646 E.01681
G1 X86.354 Y130.2 E.3755
G1 X86.354 Y130.735 E.01681
G1 X94.265 Y138.646 E.35173
G1 X93.731 Y138.646 E.01681
G1 X86.354 Y131.269 E.32795
G1 X86.354 Y131.804 E.01681
G1 X93.196 Y138.646 E.30418
G1 X92.661 Y138.646 E.01681
G1 X86.354 Y132.339 E.28041
G1 X86.354 Y132.873 E.01681
G1 X92.127 Y138.646 E.25663
G1 X91.592 Y138.646 E.01681
G1 X86.354 Y133.408 E.23286
G1 X86.354 Y133.943 E.01681
G1 X91.057 Y138.646 E.20909
G1 X90.523 Y138.646 E.01681
G1 X86.354 Y134.477 E.18531
G1 X86.354 Y135.012 E.01681
G1 X89.988 Y138.646 E.16154
G1 X89.453 Y138.646 E.01681
G1 X86.354 Y135.547 E.13777
G1 X86.354 Y136.082 E.01681
G1 X88.918 Y138.646 E.114
G1 X88.384 Y138.646 E.01681
G1 X86.354 Y136.616 E.09022
G1 X86.354 Y137.151 E.01681
G1 X87.849 Y138.646 E.06645
G1 X87.314 Y138.646 E.01681
G1 X86.354 Y137.686 E.04268
G1 X86.354 Y138.22 E.01681
G1 X86.949 Y138.815 E.02645
; stop printing object box100.stl id:0 copy 0
M106 S255
;LAYER_CHANGE
;Z:0.4
;HEIGHT:0.2
;BEFORE_LAYER_CHANGE
G92 E0
;0.4


G1 E-3.5 F3600
;WIPE_START
G1 F7200
G1 X86.354 Y138.22 E-.3996
G1 X86.354 Y137.686 E-.25398
G1 X87.314 Y138.646 E-.6448
G1 X87.581 Y138.646 E-.12662
;WIPE_END
G1 E-.075 F3600
G1 Z.4 F9000
;AFTER_LAYER_CHANGE
;0.4
M104 S210 ; set temperature
G1 X87.581 Y143.377
G1 E5 F2400
;TYPE:Skirt/Brim
;WIDTH:0.42
G1 X85 Y143.377 E.08092
G1 X83.417 Y142.983 E.05115
G1 X82.203 Y141.893 E.05115
G1 X81.623 Y140 E.06207
G1 X81.623 Y80 E1.88126
G1 X82.017 Y78.417 E.05115
G1 X83.107 Y77.203 E.05115
G1 X85 Y76.623 E.06207
G1 X135 Y76.623 E1.56771
G1 X136.583 Y77.017 E.05115
G1 X137.797 Y78.107 E.05115
G1 X138.377 Y80 E.06207
G1 X138.377 Y140 E1.88126
G1 X137.983 Y141.583 E.05115
G1 X136.893 Y142.797 E.05115
G1 X135 Y143.377 E.06207
G1 X87.641 Y143.377 E1.48491
; printing object box100.stl id:0 copy 0
G1 E-3.5 F3600
;WIPE_START
G1 F7200
G1 X85 Y143.377 E-1.25445
G1 X84.652 Y143.29 E-.17055
;WIPE_END
G1 E-.075 F3600
G1 X85.994 Y139.006 F9000
G1 E5 F2400
;TYPE:Perimeter
;WIDTH:0.439999
G1 X85.994 Y80.994 E1.91539
G1 X134.006 Y80.994 E1.58521
G1 X134.006 Y139.006 E1.91539
G1 X86.054 Y139.006 E1.58323
G1 X85.597 Y139.403 F9000
G1 F2400
G1 X85.597 Y80.597 E1.94161
G1 X134.403 Y80.597 E1.61143
G1 X134.403 Y139.403 E1.94161
G1 X85.657 Y139.403 E1.60945
G1 X85.21 Y139.79 F9000
;TYPE:External perimeter
;WIDTH:0.419999
G1 F1500
G1 X85.21 Y80.21 E1.86809
G1 X134.79 Y80.21 E1.55454
G1 X134.79 Y139.79 E1.86809
G1 X85.27 Y139.79 E1.55266
G1 X85.302 Y139.401 F9000
G1 E-3.5 F3600
;WIPE_START
G1 F7200
G1 X85.267 Y136.79 E-1.425
;WIPE_END
G1 E-.075 F3600
G1 X133.076 Y138.879 F9000
G1 E5 F2400
;TYPE:Solid infill
;WIDTH:0.440082
G1 X133.7 Y138.255 E.02915
G1 X133.7 Y137.693 E.01855
G1 X132.693 Y138.7 E.04704
G1 X132.131 Y138.7 E.01855
G1 X133.7 Y137.131 E.07327
G1 X133.7 Y136.57 E.01855
G1 X131.57 Y138.7 E.0995
G1 X131.008 Y138.7 E.01855
G1 X133.7 Y136.008 E.12573
G1 X133.7 Y135.446 E.01855
G1 X130.446 Y138.7 E.15197
G1 X129.885 Y138.7 E.01855
G1 X133.7 Y134.885 E.1782
G1 X133.7 Y134.323 E.01855
G1 X129.323 Y138.7 E.20443
