; generated by PrusaSlicer 2.5.0+win64 on 2022-11-12 at 12:38:34 UTC

; 

; external perimeters extrusion width = 0.42mm
; perimeters extrusion width = 0.44mm
; infill extrusion width = 0.44mm
; solid infill extrusion width = 0.44mm
; top infill extrusion width = 0.40mm
; first layer extrusion width = 0.42mm

M201 X500 Y500 Z100 E5000 ; sets maximum accelerations, mm/sec^2
M203 X500 Y500 Z10 E60 ; sets maximum feedrates, mm / sec
M204 P500 R1000 T500 ; sets acceleration (P, T) and retract acceleration (R), mm/sec^2
M205 X8.00 Y8.00 Z0.40 E5.00 ; sets the jerk limits, mm/sec
M205 S0 T0 ; sets the minimum extruding and travel feed rate, mm/sec
M107
;TYPE:Custom
G90 ; use absolute coordinates
M83 ; extruder relative mode
M104 S150 ; set temporary nozzle temp to prevent oozing during homing
M140 S60 ; set final bed temp
G4 S20 ; allow partial nozzle warmup
G28 ; home all axis
G1 Z50 F240
G1 X2.0 Y10 F3000
M104 S215 ; set final nozzle temp
M190 S60 ; wait for bed temp to stabilize
M109 S215 ; wait for nozzle temp to stabilize
G1 Z0.28 F240
G92 E0
G1 X2.0 Y140 E10 F1500 ; prime the nozzle
G1 X2.3 Y140 F5000
G92 E0
G1 X2.3 Y10 E10 F1200 ; prime the nozzle
G92 E0
G21 ; set units to millimeters
G90 ; use absolute coordinates
M83 ; use relative distances for extrusion
; Filament gcode
M107
;LAYER_CHANGE
;Z:0.2
;HEIGHT:0.2
;BEFORE_LAYER_CHANGE
G92 E0
;0.2


G1 E-5 F3600
G1 Z.2 F9000
;AFTER_LAYER_CHANGE
;0.2
G1 X78.878 Y79.075
G1 E5 F2400
M204 S500
;TYPE:Skirt/Brim
;WIDTH:0.42
G1 F1200
G1 X81.167 Y76.93 E.09834
G1 X82.416 Y75.881 E.05114
G1 X83.804 Y74.804 E.05508
G1 X86.385 Y73.023 E.09834
G1 X89.308 Y71.311 E.10621
G1 X92.125 Y69.931 E.09834
G1 X93.626 Y69.294 E.05114
G1 X96.848 Y68.143 E.10726
G1 X99.839 Y67.317 E.09728
G1 X101.555 Y66.944 E.05508
G1 X103.195 Y66.656 E.05221
G1 X106.275 Y66.282 E.09728
G1 X108.028 Y66.168 E.05508
G1 X111.164 Y66.139 E.09834
G1 X114.544 Y66.359 E.1062
G1 X116.163 Y66.558 E.05114
G1 X119.251 Y67.109 E.09834
G1 X122.532 Y67.95 E.10621
G1 X125.504 Y68.952 E.09834
G1 X127.134 Y69.606 E.05508
G1 X129.976 Y70.933 E.09834
G1 X131.414 Y71.702 E.05115
G1 X132.93 Y72.59 E.05508
G1 X135.544 Y74.323 E.09834
G1 X136.952 Y75.374 E.05508
G1 X139.356 Y77.388 E.09834
G1 X141.785 Y79.749 E.1062
G1 X143.864 Y82.097 E.09834
G1 X144.878 Y83.375 E.05114
G1 X145.916 Y84.792 E.05508
G1 X147.625 Y87.422 E.09834
G1 X149.255 Y90.391 E.1062
G1 X150.555 Y93.245 E.09834
G1 X151.15 Y94.764 E.05114
G1 X152.203 Y97.984 E.10621
G1 X152.953 Y101.029 E.09834
G1 X153.278 Y102.755 E.05508
G1 X153.517 Y104.369 E.05114
G1 X153.808 Y107.492 E.09834
G1 X153.871 Y110.878 E.1062
G1 X153.808 Y112.508 E.05114
G1 X153.517 Y115.631 E.09834
G1 X152.946 Y119.004 E.10726
G1 X152.203 Y122.016 E.09727
G1 X151.688 Y123.696 E.05508
G1 X150.603 Y126.639 E.09834
G1 X149.956 Y128.136 E.05114
G1 X148.438 Y131.164 E.1062
G1 X146.828 Y133.856 E.09834
G1 X145.844 Y135.311 E.05508
G1 X144.878 Y136.625 E.05115
G1 X142.887 Y139.049 E.09834
G1 X140.548 Y141.499 E.1062
G1 X138.22 Y143.6 E.09834
G1 X136.853 Y144.703 E.05508
G1 X134.305 Y146.532 E.09834
G1 X132.93 Y147.41 E.05114
G1 X129.976 Y149.067 E.1062
G1 X127.134 Y150.394 E.09834
G1 X125.621 Y151.003 E.05115
G1 X122.411 Y152.086 E.1062
G1 X119.373 Y152.864 E.09834
G1 X117.65 Y153.205 E.05507
G1 X116.039 Y153.459 E.05115
G1 X112.919 Y153.78 E.09834
G1 X109.533 Y153.874 E.1062
G1 X107.902 Y153.826 E.05115
G1 X104.777 Y153.564 E.09834
G1 X101.399 Y153.024 E.10726
G1 X98.38 Y152.309 E.09728
G1 X96.696 Y151.81 E.05508
G1 X95.151 Y151.286 E.05114
G1 X92.24 Y150.12 E.09834
G1 X89.198 Y148.63 E.1062
G1 X86.491 Y147.045 E.09834
G1 X85.13 Y146.145 E.05114
G1 X82.416 Y144.119 E.1062
G1 X80.049 Y142.061 E.09834
G1 X78.79 Y140.836 E.05508
G1 X77.643 Y139.629 E.0522
G1 X75.63 Y137.269 E.09728
G1 X73.629 Y134.536 E.1062
G1 X71.969 Y131.875 E.09834
G1 X71.182 Y130.446 E.05115
G1 X70.395 Y128.876 E.05508
G1 X69.147 Y125.998 E.09834
G1 X68.54 Y124.35 E.05508
G1 X67.621 Y121.351 E.09834
G1 X66.871 Y118.048 E.10621
G1 X66.407 Y114.946 E.09834
G1 X66.253 Y113.322 E.05114
G1 X66.127 Y109.937 E.10621
G1 X66.244 Y106.803 E.09834
G1 X66.407 Y105.054 E.05508
G1 X66.871 Y101.952 E.09834
G1 X67.2 Y100.355 E.05114
G1 X68.072 Y97.081 E.1062
G1 X68.581 Y95.532 E.05115
G1 X69.72 Y92.61 E.09834
G1 X70.449 Y91.011 E.05508
G1 X71.906 Y88.234 E.09834
G1 X73.699 Y85.36 E.10621
G1 X75.552 Y82.83 E.09834
G1 X76.586 Y81.568 E.05115
G1 X78.838 Y79.119 E.10432
; printing object cylinder80.stl id:0 copy 0
G1 E-3.5 F3600
;WIPE_START
G1 F7200
G1 X81.024 Y77.064 E-1.425
;WIPE_END
G1 E-.075 F3600
G1 X80.674 Y82.529 F9000
G1 E5 F2400
;TYPE:External perimeter
;WIDTH:0.424891
G1 F1200
G1 X81.452 Y81.718 E.03569
G1 X82.825 Y80.403 E.06038
;WIDTH:0.420233
G1 X83.955 Y79.4 E.04739
;WIDTH:0.425074
G1 X85.125 Y78.443 E.04803
;WIDTH:0.425246
G1 X86.329 Y77.529 E.04806
G1 X87.57 Y76.664 E.0481
;WIDTH:0.420663
G1 X88.837 Y75.842 E.04744
;WIDTH:0.42536
G1 X90.137 Y75.07 E.04807
;WIDTH:0.425547
G1 X91.465 Y74.347 E.0481
G1 X92.819 Y73.676 E.0481
;WIDTH:0.425662
G1 X94.198 Y73.055 E.04811
G1 X95.599 Y72.487 E.04811
;WIDTH:0.42579
G1 X97.02 Y71.972 E.04813
G1 X98.459 Y71.51 E.04813
;WIDTH:0.425938
G1 X99.306 Y71.263 E.02808
G1 X100.753 Y70.892 E.04758
G1 X102.213 Y70.575 E.04758
G1 X102.868 Y70.455 E.02121
;WIDTH:0.426057
G1 X104.36 Y70.215 E.04816
G1 X105.86 Y70.03 E.04816
G1 X107.367 Y69.903 E.04816
G1 X108.877 Y69.832 E.04816
;WIDTH:0.425874
G1 X110.375 Y69.818 E.04772
;WIDTH:0.425994
G1 X111.9 Y69.861 E.04857
G1 X113.408 Y69.961 E.04815
G1 X114.912 Y70.117 E.04815
G1 X116.408 Y70.33 E.04815
;WIDTH:0.425869
G1 X117.067 Y70.439 E.02127
G1 X118.533 Y70.728 E.04757
G1 X119.987 Y71.073 E.04757
G1 X120.835 Y71.304 E.02801
;WIDTH:0.425759
G1 X122.283 Y71.738 E.04812
G1 X123.714 Y72.227 E.04812
;WIDTH:0.425628
G1 X125.125 Y72.77 E.04811
G1 X126.514 Y73.365 E.0481
;WIDTH:0.425473
G1 X127.881 Y74.012 E.04809
G1 X129.222 Y74.709 E.04809
;WIDTH:0.425328
G1 X130.523 Y75.45 E.04762
G1 X131.808 Y76.246 E.04807
;WIDTH:0.42519
G1 X133.446 Y77.359 E.06293
G1 X134.284 Y77.98 E.03317
;WIDTH:0.420402
G1 X135.469 Y78.917 E.04741
;WIDTH:0.42507
G1 X136.623 Y79.896 E.04808
;WIDTH:0.424851
G1 X138.024 Y81.192 E.06061
G1 X138.81 Y81.981 E.03538
;WIDTH:0.42
G1 X138.825 Y81.996 E.00065
;WIDTH:0.419836
G1 X139.842 Y83.086 E.04672
;WIDTH:0.424569
G1 X140.836 Y84.227 E.04801
;WIDTH:0.424411
G1 X141.783 Y85.405 E.04795
;WIDTH:0.424245
G1 X142.643 Y86.559 E.04565
;WIDTH:0.420151
G1 X142.696 Y86.634 E.00288
;WIDTH:0.418667
G1 X143.54 Y87.863 E.04657
;WIDTH:0.423887
G1 X144.351 Y89.14 E.04793
;WIDTH:0.423708
G1 X145.112 Y90.447 E.04787
;WIDTH:0.423499
G1 X145.823 Y91.781 E.04784
;WIDTH:0.423328
G1 X146.483 Y93.141 E.04782
;WIDTH:0.423151
G1 X147.091 Y94.525 E.0478
;WIDTH:0.422968
G1 X147.647 Y95.931 E.04778
;WIDTH:0.422782
G1 X148.15 Y97.357 E.04775
;WIDTH:0.422651
G1 X148.599 Y98.8 E.04774
;WIDTH:0.422514
G1 X148.993 Y100.26 E.04772
;WIDTH:0.422363
G1 X149.332 Y101.733 E.0477
;WIDTH:0.422233
G1 X149.615 Y103.218 E.04768
;WIDTH:0.422087
G1 X149.842 Y104.713 E.04766
;WIDTH:0.421933
G1 X150.013 Y106.215 E.04765
;WIDTH:0.421775
G1 X150.128 Y107.723 E.04763
;WIDTH:0.421617
G1 X150.185 Y109.233 E.04761
;WIDTH:0.421456
G1 X150.186 Y109.256 E.00073
G1 X150.185 Y110.766 E.04753
;WIDTH:0.421618
G1 X150.128 Y112.277 E.0476
;WIDTH:0.421774
G1 X150.013 Y113.784 E.04762
;WIDTH:0.421932
G1 X149.843 Y115.286 E.04764
;WIDTH:0.422086
G1 X149.615 Y116.782 E.04769
;WIDTH:0.422233
G1 X149.332 Y118.267 E.04768
;WIDTH:0.422357
G1 X149.025 Y119.614 E.0436
G1 X148.599 Y121.2 E.0518
;WIDTH:0.422652
G1 X148.15 Y122.643 E.04774
;WIDTH:0.422782
G1 X147.647 Y124.069 E.04775
;WIDTH:0.422968
G1 X147.091 Y125.475 E.04777
;WIDTH:0.423072
G1 X146.488 Y126.847 E.04737
;WIDTH:0.423351
G1 X145.823 Y128.219 E.04824
;WIDTH:0.423515
G1 X145.11 Y129.554 E.04788
;WIDTH:0.41884
G1 X144.36 Y130.842 E.04659
;WIDTH:0.420187
G1 X144.294 Y130.951 E.004
;WIDTH:0.423758
G1 X143.55 Y132.126 E.04405
;WIDTH:0.424098
G1 X142.686 Y133.383 E.04833
;WIDTH:0.424237
G1 X141.781 Y134.595 E.04796
;WIDTH:0.419249
G1 X140.848 Y135.758 E.04666
;WIDTH:0.420093
G1 X140.812 Y135.801 E.00177
;WIDTH:0.424579
G1 X139.844 Y136.915 E.04681
;WIDTH:0.424727
G1 X138.811 Y138.018 E.048
;WIDTH:0.424937
G1 X138.024 Y138.808 E.03542
G1 X136.62 Y140.103 E.06067
;WIDTH:0.420291
G1 X135.472 Y141.084 E.0474
;WIDTH:0.425261
G1 X134.643 Y141.748 E.03375
G1 X133.446 Y142.642 E.04749
G1 X131.808 Y143.754 E.06294
;WIDTH:0.425434
G1 X130.523 Y144.55 E.04809
G1 X129.209 Y145.297 E.04808
;WIDTH:0.425552
G1 X127.868 Y145.995 E.0481
G1 X126.501 Y146.641 E.04809
;WIDTH:0.425708
G1 X125.112 Y147.236 E.04812
G1 X123.7 Y147.778 E.04811
;WIDTH:0.425817
G1 X122.27 Y148.266 E.04813
G1 X120.822 Y148.7 E.04813
;WIDTH:0.425955
G1 X119.98 Y148.929 E.02779
G1 X118.526 Y149.273 E.04758
G1 X117.06 Y149.563 E.04758
G1 X116.394 Y149.672 E.02149
;WIDTH:0.426056
G1 X115.585 Y149.798 E.0261
G1 X114.101 Y149.978 E.0476
G1 X112.613 Y150.102 E.04759
G1 X111.885 Y150.14 E.0232
G1 X111.12 Y150.172 E.0244
G1 X109.626 Y150.185 E.0476
G1 X108.133 Y150.144 E.0476
G1 X107.353 Y150.096 E.0249
;WIDTH:0.425939
G1 X105.846 Y149.968 E.04815
G1 X104.346 Y149.783 E.04814
G1 X102.854 Y149.543 E.04815
G1 X101.371 Y149.246 E.04814
;WIDTH:0.425809
G1 X100.746 Y149.106 E.02041
G1 X99.299 Y148.735 E.04757
G1 X97.866 Y148.31 E.04757
G1 X96.451 Y147.833 E.04756
G1 X95.054 Y147.303 E.04757
G1 X94.185 Y146.939 E.02999
;WIDTH:0.425512
G1 X92.806 Y146.318 E.04809
G1 X91.453 Y145.646 E.04809
;WIDTH:0.42536
G1 X89.692 Y144.676 E.06392
G1 X88.735 Y144.095 E.03561
;WIDTH:0.420663
G1 X87.57 Y143.336 E.04365
;WIDTH:0.425153
G1 X86.329 Y142.471 E.04809
G1 X85.125 Y141.557 E.04805
;WIDTH:0.42501
G1 X83.632 Y140.325 E.06149
G1 X82.823 Y139.598 E.03457
;WIDTH:0.424898
G1 X81.729 Y138.555 E.04802
;WIDTH:0.424793
G1 X80.674 Y137.471 E.048
;WIDTH:0.424655
G1 X79.662 Y136.349 E.04799
;WIDTH:0.424495
G1 X78.721 Y135.224 E.04652
;WIDTH:0.42011
G1 X78.68 Y135.173 E.00205
;WIDTH:0.4191
G1 X77.769 Y133.993 E.04662
;WIDTH:0.424151
G1 X76.887 Y132.764 E.04796
;WIDTH:0.423982
G1 X76.054 Y131.502 E.0479
;WIDTH:0.423751
G1 X75.329 Y130.31 E.04418
;WIDTH:0.420203
G1 X75.262 Y130.192 E.00426
;WIDTH:0.418888
G1 X74.535 Y128.89 E.04661
;WIDTH:0.423421
G1 X73.848 Y127.542 E.04787
;WIDTH:0.423242
G1 X73.213 Y126.17 E.04781
;WIDTH:0.42306
G1 X72.631 Y124.775 E.04779
;WIDTH:0.42288
G1 X72.102 Y123.359 E.04776
;WIDTH:0.422723
G1 X71.626 Y121.924 E.04775
;WIDTH:0.422585
G1 X71.204 Y120.472 E.04773
;WIDTH:0.422448
G1 X70.838 Y119.005 E.04771
;WIDTH:0.422306
G1 X70.527 Y117.526 E.04769
;WIDTH:0.422162
G1 X70.271 Y116.036 E.04767
;WIDTH:0.42201
G1 X70.072 Y114.537 E.04766
;WIDTH:0.421857
G1 X69.929 Y113.032 E.04764
;WIDTH:0.421697
G1 X69.844 Y111.522 E.04762
;WIDTH:0.421536
G1 X69.814 Y110.011 E.0476
;WIDTH:0.421405
G1 X69.814 Y110 E.00033
;WIDTH:0.421528
G1 X69.842 Y108.51 E.04692
G1 X69.929 Y106.969 E.04859
;WIDTH:0.421857
G1 X70.072 Y105.464 E.04763
;WIDTH:0.422011
G1 X70.271 Y103.965 E.04765
;WIDTH:0.422162
G1 X70.526 Y102.474 E.0477
;WIDTH:0.422307
G1 X70.838 Y100.995 E.04769
;WIDTH:0.422448
G1 X71.204 Y99.528 E.04771
;WIDTH:0.422586
G1 X71.626 Y98.076 E.04773
;WIDTH:0.422722
G1 X72.102 Y96.641 E.04775
;WIDTH:0.42288
G1 X72.631 Y95.225 E.04776
;WIDTH:0.423059
G1 X73.213 Y93.83 E.04778
;WIDTH:0.423242
G1 X73.848 Y92.458 E.04781
;WIDTH:0.423425
G1 X74.533 Y91.11 E.04783
;WIDTH:0.423582
G1 X75.271 Y89.789 E.04789
;WIDTH:0.418771
G1 X76.045 Y88.516 E.04659
;WIDTH:0.420187
G1 X76.108 Y88.415 E.00372
;WIDTH:0.423982
G1 X76.887 Y87.236 E.04477
;WIDTH:0.424157
G1 X77.767 Y86.007 E.04792
;WIDTH:0.424323
G1 X78.694 Y84.812 E.04797
;WIDTH:0.419399
G1 X79.649 Y83.667 E.04668
;WIDTH:0.420075
G1 X79.68 Y83.63 E.00149
;WIDTH:0.424657
G1 X80.633 Y82.573 E.0452
G1 X80.705 Y83.053 F9000
G1 F1200
G1 X80.946 Y82.79 E.0113
;WIDTH:0.424792
G1 X81.99 Y81.717 E.04755
G1 X83.074 Y80.683 E.04755
;WIDTH:0.420233
G1 X84.195 Y79.691 E.04699
;WIDTH:0.425074
G1 X85.354 Y78.741 E.04759
;WIDTH:0.425229
G1 X86.547 Y77.836 E.04761
G1 X87.768 Y76.982 E.04738
;WIDTH:0.417663
G1 X87.774 Y76.978 E.00022
;WIDTH:0.420663
G1 X88.94 Y76.222 E.04365
;WIDTH:0.42536
G1 X89.889 Y75.651 E.0352
;WIDTH:0.425644
G1 X91.628 Y74.687 E.06329
G1 X92.97 Y74.021 E.04766
G1 X94.335 Y73.405 E.04766
G1 X95.2 Y73.051 E.02975
G1 X95.723 Y72.842 E.01791
G1 X97.131 Y72.331 E.04766
;WIDTH:0.42579
G1 X98.557 Y71.874 E.04768
;WIDTH:0.425905
G1 X99.999 Y71.47 E.04769
G1 X101.455 Y71.121 E.04769
G1 X102.284 Y70.952 E.02693
G1 X102.924 Y70.827 E.02076
G1 X104.402 Y70.589 E.04769
G1 X105.889 Y70.406 E.04769
;WIDTH:0.426035
G1 X107.381 Y70.279 E.04771
G1 X108.877 Y70.208 E.04771
;WIDTH:0.425874
G1 X110.361 Y70.194 E.04728
;WIDTH:0.426091
G1 X111.871 Y70.236 E.04813
G1 X113.366 Y70.335 E.04772
G1 X114.855 Y70.489 E.04772
G1 X116.338 Y70.7 E.04772
;WIDTH:0.425956
G1 X117.812 Y70.966 E.0477
G1 X118.448 Y71.102 E.0207
G1 X119.275 Y71.287 E.027
G1 X120.724 Y71.663 E.0477
;WIDTH:0.425818
G1 X122.159 Y72.094 E.04768
G1 X123.576 Y72.578 E.04768
;WIDTH:0.425696
G1 X124.974 Y73.115 E.04767
G1 X126.351 Y73.704 E.04767
;WIDTH:0.42555
G1 X127.705 Y74.344 E.04765
G1 X129.033 Y75.035 E.04765
;WIDTH:0.425393
G1 X130.335 Y75.776 E.04763
G1 X131.608 Y76.565 E.04763
;WIDTH:0.425259
G1 X132.851 Y77.401 E.04761
G1 X134.061 Y78.283 E.04761
;WIDTH:0.420402
G1 X135.236 Y79.211 E.04701
;WIDTH:0.42507
G1 X136.377 Y80.182 E.04759
;WIDTH:0.424944
G1 X137.48 Y81.195 E.04757
G1 X138.544 Y82.248 E.04755
;WIDTH:0.42
G1 X138.549 Y82.253 E.00025
;WIDTH:0.419836
G1 X139.568 Y83.342 E.04673
;WIDTH:0.424569
G1 X140.55 Y84.472 E.04752
;WIDTH:0.424411
G1 X141.489 Y85.639 E.04751
;WIDTH:0.424245
G1 X142.34 Y86.783 E.0452
;WIDTH:0.420151
G1 X142.386 Y86.847 E.00248
;WIDTH:0.418667
G1 X143.231 Y88.076 E.04657
;WIDTH:0.423887
G1 X144.032 Y89.341 E.04744
;WIDTH:0.423708
G1 X144.786 Y90.635 E.04742
;WIDTH:0.423499
G1 X145.489 Y91.957 E.0474
;WIDTH:0.423328
G1 X146.143 Y93.305 E.04737
;WIDTH:0.423151
G1 X146.746 Y94.676 E.04735
;WIDTH:0.422968
G1 X147.296 Y96.069 E.04733
;WIDTH:0.422782
G1 X147.794 Y97.481 E.04731
;WIDTH:0.422651
G1 X148.238 Y98.912 E.04729
;WIDTH:0.422514
G1 X148.628 Y100.358 E.04727
;WIDTH:0.422363
G1 X148.964 Y101.818 E.04727
;WIDTH:0.422233
G1 X149.244 Y103.289 E.04724
;WIDTH:0.422087
G1 X149.469 Y104.77 E.04722
;WIDTH:0.421933
G1 X149.638 Y106.258 E.0472
;WIDTH:0.421775
G1 X149.75 Y107.751 E.04718
;WIDTH:0.421617
G1 X149.807 Y109.248 E.04716
;WIDTH:0.421456
G1 X149.807 Y110.752 E.04736
;WIDTH:0.421618
G1 X149.75 Y112.249 E.04716
;WIDTH:0.421774
G1 X149.638 Y113.743 E.04718
;WIDTH:0.421932
G1 X149.469 Y115.231 E.0472
;WIDTH:0.422086
G1 X149.244 Y116.712 E.04722
;WIDTH:0.422233
G1 X148.964 Y118.183 E.04724
;WIDTH:0.422375
G1 X148.628 Y119.643 E.04726
G1 X148.238 Y121.089 E.04726
;WIDTH:0.422652
G1 X147.794 Y122.519 E.04729
;WIDTH:0.422782
G1 X147.296 Y123.931 E.04731
;WIDTH:0.422968
G1 X146.746 Y125.324 E.04733
;WIDTH:0.423072
G1 X146.149 Y126.684 E.04693
;WIDTH:0.423351
G1 X145.489 Y128.043 E.04779
;WIDTH:0.423515
G1 X144.785 Y129.365 E.0474
;WIDTH:0.41884
G1 X144.035 Y130.653 E.0466
;WIDTH:0.420187
G1 X143.975 Y130.751 E.00359
;WIDTH:0.423758
G1 X143.238 Y131.914 E.0436
;WIDTH:0.424098
G1 X142.383 Y133.159 E.04788
;WIDTH:0.424237
G1 X141.488 Y134.36 E.04748
;WIDTH:0.419249
G1 X140.554 Y135.522 E.04664
;WIDTH:0.420093
G1 X140.526 Y135.555 E.00137
;WIDTH:0.424579
G1 X139.568 Y136.658 E.04637
;WIDTH:0.424727
G1 X138.544 Y137.752 E.04755
;WIDTH:0.424849
G1 X137.48 Y138.805 E.04756
G1 X136.377 Y139.818 E.04756
;WIDTH:0.420291
G1 X135.237 Y140.789 E.047
;WIDTH:0.425166
G1 X134.061 Y141.717 E.0476
G1 X133.219 Y142.334 E.03317
G1 X131.608 Y143.435 E.06203
;WIDTH:0.425516
G1 X130.753 Y143.969 E.03209
G1 X129.04 Y144.961 E.06297
G1 X127.711 Y145.653 E.04765
G1 X126.357 Y146.293 E.04764
;WIDTH:0.425775
G1 X124.981 Y146.883 E.04768
G1 X123.583 Y147.42 E.04768
G1 X122.724 Y147.717 E.02891
G1 X122.166 Y147.904 E.01877
G1 X120.731 Y148.335 E.04768
G1 X119.282 Y148.711 E.04768
;WIDTH:0.425917
G1 X117.819 Y149.033 E.04769
G1 X116.996 Y149.185 E.02665
